KINDER
CUT[ES REGNET AUF DER BRUECKE]
REG[Europa, Mitteleuropa, Deutschland, Niederrhein]
KEY[K2172A 08  F 2/4]
MEL[-5  1234  5_6
    4  3_2_  1_0
    -5  1234  5_6
    4  3_2_  1_0_
    5555  666_
    4444  555_
    3333  5_4
    4  3_2_  1_0 //] >>
FCT[Kinder - Lied, Reigen, Tanz - Spiel, Brautwerbung]
